X: 27815
T: Mortgage Burn, The
R: reel
M: 4/4
K: Amajor
|:cEBE AEFA|cEBE AEFA|BFBc BFBc|dBcA BAFA|
cEBE AEFA|cEBE AEFA|dBB2 BAFE|FABc A4:|
cAA2 eAce|fafe cABA|cAA2 eAce|fcBA F2AB|
cAA2 eAce|fafe cABA|dBB2 BAFE|FABc A4|
cAA2 eAce|fafe cABA|cAA2 eAce|fcBA F3E|
FABc A2ce|faec BAFA|dBB2 BAFE|FABc A4|

